X: 27316
T: Mist Covered Mountain, The
R: jig
M: 6/8
K: Adorian
G|EAA ABd|edB AGE|~G3 GAB|dBA GED|
EAA ABd|edB ABd|efg dBG|BAG A2:|

